modules/hawcons-filled/icons/zip.svg

<?xml version="1.0" encoding="UTF-8" standalone="no"?>
<svg width="32px" height="32px" viewBox="0 0 32 32" version="1.1" xmlns="http://www.w3.org/2000/svg" xmlns:xlink="http://www.w3.org/1999/xlink" xmlns:sketch="http://www.bohemiancoding.com/sketch/ns">
    <!-- Generator: Sketch 3.0.3 (7891) - http://www.bohemiancoding.com/sketch -->
    <title>icon 110 zip</title>
    <desc>Created with Sketch.</desc>
    <defs></defs>
    <g id="Page-1" stroke="none" stroke-width="1" fill="none" fill-rule="evenodd" sketch:type="MSPage">
        <g id="icon-110-zip" sketch:type="MSArtboardGroup" fill="#929292">
            <path d="M16,18.04962 L16,17 L15,17 L15,16 L16,16 L16,15 L15,15 L15,14 L16,14 L16,13 L15,13 L15,12 L16,12 L16,11 L15,11 L15,10 L16,10 L16,9 L15,9 L15,8 L16,8 L16,7 L15,7 L15,6 L16,6 L16,5 L15,5 L15,4 L16,4 L16,3 L11.0061948,3 C8.7936345,3 7,4.79245532 7,6.99847066 L7,26.0015293 C7,28.2098237 8.78747387,30 11.0061948,30 L21.9938052,30 C24.2063655,30 26,28.2075447 26,26.0015293 L26,6.99847066 C26,4.79017629 24.2125261,3 21.9938052,3 L18,3 L18,4 L17,4 L17,5 L18,5 L18,6 L17,6 L17,7 L18,7 L18,8 L17,8 L17,9 L18,9 L18,10 L17,10 L17,11 L18,11 L18,12 L17,12 L17,13 L18,13 L18,14 L17,14 L17,15 L18,15 L18,16 L17,16 L17,17 L17,18.0494551 C18.1471448,18.2800315 19,19.2895542 19,20.5 C19,21.8903379 17.8807119,23 16.5,23 C15.109662,23 14,21.8807119 14,20.5 C14,19.2820888 14.8588798,18.2795527 16,18.04962 L16,18.04962 L16,18.04962 Z M16.5,19 C15.6715729,19 15,19.6657972 15,20.5 C15,21.3284271 15.6657972,22 16.5,22 C17.3284271,22 18,21.3342028 18,20.5 C18,19.6715729 17.3342028,19 16.5,19 L16.5,19 Z" id="zip" sketch:type="MSShapeGroup"></path>
        </g>
    </g>
</svg>

<svg width="32" height="32" viewBox="0 0 32 32" xmlns="http://www.w3.org/2000/svg"><path d="M16 18.05V17h-1v-1h1v-1h-1v-1h1v-1h-1v-1h1v-1h-1v-1h1V9h-1V8h1V7h-1V6h1V5h-1V4h1V3h-4.994A4.004 4.004 0 0 0 7 6.998v19.004A3.998 3.998 0 0 0 11.006 30h10.988A4.004 4.004 0 0 0 26 26.002V6.998A3.998 3.998 0 0 0 21.994 3H18v1h-1v1h1v1h-1v1h1v1h-1v1h1v1h-1v1h1v1h-1v1h1v1h-1v1h1v1h-1v2.05c1.147.23 2 1.24 2 2.45 0 1.39-1.12 2.5-2.5 2.5-1.39 0-2.5-1.12-2.5-2.5 0-1.218.859-2.22 2-2.45zm.5.95c-.828 0-1.5.666-1.5 1.5 0 .828.666 1.5 1.5 1.5.828 0 1.5-.666 1.5-1.5 0-.828-.666-1.5-1.5-1.5z" fill="#929292" fill-rule="evenodd"/></svg>
